images/graphics/mountain_mask_small.svg

<svg width="191" height="50" viewBox="0 0 191 50" fill="none" xmlns="http://www.w3.org/2000/svg">
<path fill-rule="evenodd" clip-rule="evenodd" d="M3.58762 50C3.6001 49.9984 3.61259 49.9967 3.6251 49.9951C7.79063 49.4455 14.1114 48.0916 14.5174 47.7524C41.291 25.6414 11.3786 59.9107 40.7838 35.7348C53.3304 25.4219 48.8434 29.7696 58.7002 38.2439C62.1843 41.2458 65.9538 33.3397 62.3696 27.0192C62.2644 26.8365 69.7417 17.8493 69.8485 17.7772C69.7584 17.09 72.7536 32.614 72.5985 21.8635C72.5985 21.7864 74.7577 14.3094 76.1293 14.2206C79.0946 14.0295 74.8778 11.3629 79.9739 8.1632C81.2004 7.39555 82.8924 3.4953 83.1911 2.73268C83.2412 2.80978 90.9854 9.7823 92.1618 11.2154C93.44 12.7674 100.231 14.353 99.9795 19.8036C99.9662 20.1053 102.481 25.5476 102.321 28.4438C102.185 30.9228 109.027 33.8777 111.533 40.1094C114.746 48.096 110.666 32.495 113.951 37.5232C116.624 41.6229 118.51 40.1396 122.994 46.7936C123.489 47.5227 124.726 49.2441 125.502 49.9983H126.151C126.099 49.6329 125.879 48.9592 125.42 47.8697C124.676 46.1014 123.875 39.5446 122.902 38.9412C121.23 37.9104 114.787 33.7051 114.809 32.3491C114.914 25.8459 123.232 36.9869 121.035 32.3961C116.823 23.6 118.67 29.3137 116.327 28.0215C117.394 26.6689 116.671 25.7956 116.968 24.9727C118.578 24.4347 118.854 25.214 115.123 21.6456C111.155 17.856 116.321 16.1179 114.163 11.3394C113.24 9.30126 116.621 9.49569 118.904 11.3561C120.075 12.3149 128.691 16.1213 134.336 18.4611C138.813 23.7139 144.107 27.2186 150.22 28.9785C145.557 26.3538 141.733 23.429 138.746 20.1992C138.959 20.2712 139.115 20.3132 139.198 20.3299C145.811 21.4194 144.169 22.6362 148.1 24.8453C150.625 25.1889 155.883 31.501 163.07 33.328C166.871 34.2984 170.798 41.1486 174.896 44.0868C182.662 49.6447 177.362 46.7953 185.852 49.2843C186.688 49.5307 187.396 49.767 188.02 49.9967H191C186.405 48.4161 183.533 44.4605 180.252 43.3191C173.791 41.0815 170.504 36.2444 166.325 31.501C161.914 26.4895 155.649 27.0326 153.36 24.2486C151.786 22.3328 142.59 17.4186 140.069 16.5889C140.006 16.5302 139.842 16.495 139.737 16.423C139.393 16.19 139.226 16.19 138.976 16.0509C138.4 15.7207 138.229 16.0592 137.606 16.0458C137.373 16.0458 136.585 15.5464 136.56 15.4776C136.491 15.4391 136.186 15.3117 136.143 15.2782C135.751 14.948 134.721 14.2139 134.235 14.1636C133.89 14.1301 133.279 13.7144 133.027 13.6339C132.357 13.4127 132.156 12.9082 131.197 12.7439C130.446 12.6166 129.48 12.3668 128.824 11.9679C128.832 11.8875 120.846 9.64486 120.412 9.53089C120.334 9.51413 120.15 9.43703 119.915 9.33143C118.243 7.44416 115.53 7.05866 113.426 5.87199C112.456 5.32894 108.618 7.3855 107.263 8.26712C106.552 8.73307 106.172 8.72469 105.706 9.11857C105.421 9.35993 103.384 10.2633 103.055 9.97505C102.768 9.72028 102.956 9.80912 102.668 9.7471C101.478 9.48396 101.735 10.1661 101.159 10.2466C100.133 10.3874 100.57 10.5399 100.048 10.7209C99.1852 11.031 99.7192 11.2472 98.8131 11.2304C98.1173 10.1795 96.1466 9.88622 95.2238 8.50009C95.0203 8.19002 93.2949 6.64299 92.7425 6.63126C92.0467 6.62288 90.0643 4.57135 88.953 4.20261C88.943 4.19758 87.6481 3.28244 87.578 3.22377C87.568 3.21539 86.5919 2.78296 86.3315 2.54496C85.9811 2.22315 84.7229 1.70524 83.7451 1.43874C83.3163 1.189 82.8857 0.97614 82.4786 0.878927C81.0135 0.518568 80.86 -0.329531 79.8037 0.136421C77.6762 1.06497 78.1501 0.671092 75.869 2.16784C75.6538 2.13767 74.464 2.37567 74.3472 2.48965C73.7382 3.07963 73.2893 3.77018 72.6101 3.75677C71.3903 3.73498 71.7791 4.00315 70.3958 4.72722C69.2261 5.35073 68.9941 5.80327 67.7143 6.33794C67.1469 6.5793 65.8053 7.84642 65.238 7.78776C64.8976 7.99559 64.3302 7.52461 63.6611 8.55876C63.5393 8.7448 62.7867 8.72469 62.0859 9.60631C62.0575 9.64486 61.34 9.99684 61.1431 10.1996C59.935 11.4416 60.5858 10.679 60.0401 10.9874C59.2725 11.4282 58.4599 11.9109 57.6422 12.2344C56.0203 12.8613 56.0887 13.3323 55.3078 13.7949C54.2732 14.41 54.2065 14.7703 52.8815 15.2313C52.1674 15.486 49.8212 17.3381 49.047 17.4789C48.3011 17.6063 45.5578 20.1925 44.4798 20.6618C44.3947 20.7037 44.1361 20.8998 44.0627 20.9668C42.4774 21.1579 41.9401 22.2474 40.5818 22.8994C39.9611 23.196 39.8243 23.5815 39.0584 23.7944C37.9704 24.0877 36.3952 25.7018 35.943 25.8543C35.0269 26.1728 33.5418 27.5673 32.6991 27.4868C32.6857 27.4818 30.1661 28.9065 30.096 29.0087C30.0259 29.1059 29.9375 29.1394 29.9408 29.2333C29.013 29.9624 29.6137 28.6819 27.8366 30.7971C26.6986 32.1497 23.7484 33.0564 21.8711 35.1499C21.454 35.6158 21.2754 34.4928 19.2096 37.5869C17.3741 40.329 15.7138 39.9787 13.3994 41.8341C11.6673 43.2202 10.5059 42.6219 7.89444 44.717C6.10563 46.15 4.13327 47.3786 2.15925 48.4345C1.39166 48.8502 0.769253 49.7402 0 49.995H3.58762V50Z" fill="white"/>
<path d="M14.5174 47.7524C14.1114 48.0916 7.79063 49.4455 3.6251 49.9951L125.502 49.9983C124.726 49.2441 123.489 47.5227 122.994 46.7936C118.51 40.1396 116.624 41.6229 113.951 37.5232C110.666 32.495 114.746 48.096 111.533 40.1094C109.027 33.8777 102.185 30.9228 102.321 28.4438C102.481 25.5476 99.9662 20.1053 99.9795 19.8036C100.231 14.353 93.44 12.7674 92.1618 11.2154C90.9854 9.7823 83.2412 2.80978 83.1911 2.73268C82.8924 3.4953 81.2004 7.39555 79.9739 8.1632C74.8778 11.3629 79.0946 14.0295 76.1293 14.2206C74.7577 14.3094 72.5985 21.7864 72.5985 21.8635C72.7536 32.614 69.7584 17.09 69.8485 17.7772C69.7417 17.8493 62.2644 26.8365 62.3696 27.0192C65.9538 33.3397 62.1843 41.2458 58.7002 38.2439C48.8434 29.7696 53.3304 25.4219 40.7838 35.7348C11.3786 59.9107 41.291 25.6414 14.5174 47.7524Z" fill="#275490"/>
<path d="M125.42 47.8697C125.879 48.9592 126.099 49.6329 126.151 49.9983L188.02 49.9967C187.396 49.767 186.688 49.5307 185.852 49.2843C177.362 46.7953 182.662 49.6447 174.896 44.0868C170.798 41.1486 166.871 34.2984 163.07 33.328C155.883 31.501 150.625 25.1889 148.1 24.8453C144.169 22.6362 145.811 21.4194 139.198 20.3299C139.115 20.3132 138.959 20.2712 138.746 20.1992C141.733 23.429 145.557 26.3538 150.22 28.9785C144.107 27.2186 138.813 23.7139 134.336 18.4611C128.691 16.1213 120.075 12.3149 118.904 11.3561C116.621 9.49569 113.24 9.30126 114.163 11.3394C116.321 16.1179 111.155 17.856 115.123 21.6456C118.854 25.214 118.578 24.4347 116.968 24.9727C116.671 25.7956 117.394 26.6689 116.327 28.0215C118.67 29.3137 116.823 23.6 121.035 32.3961C123.232 36.9869 114.914 25.8459 114.809 32.3491C114.787 33.7051 121.23 37.9104 122.902 38.9412C123.875 39.5446 124.676 46.1014 125.42 47.8697Z" fill="#275490"/>
</svg>

<svg xmlns="http://www.w3.org/2000/svg" width="191" height="50" fill="none"><path fill="#fff" fill-rule="evenodd" d="m3.588 50 .037-.005c4.166-.55 10.486-1.904 10.892-2.243 26.774-22.111-3.139 12.158 26.266-12.018 12.547-10.313 8.06-5.965 17.916 2.509 3.484 3.002 7.254-4.904 3.669-11.225-.105-.183 7.372-9.17 7.479-9.242-.09-.687 2.905 14.837 2.75 4.086 0-.077 2.159-7.554 3.531-7.643 2.965-.191-1.252-2.858 3.845-6.057 1.227-.768 2.918-4.668 3.217-5.431.05.077 7.794 7.05 8.971 8.483 1.278 1.552 8.069 3.138 7.818 8.588-.013.302 2.501 5.744 2.341 8.64-.136 2.479 6.706 5.434 9.212 11.666 3.213 7.987-.867-7.614 2.418-2.586 2.673 4.1 4.559 2.616 9.043 9.27.495.729 1.732 2.451 2.508 3.205h.649c-.052-.365-.272-1.039-.731-2.129-.744-1.768-1.545-8.325-2.518-8.928-1.672-1.031-8.115-5.236-8.093-6.592.105-6.503 8.423 4.638 6.226.047-4.212-8.796-2.365-3.082-4.708-4.375 1.067-1.353.344-2.226.641-3.049 1.61-.538 1.886.241-1.845-3.327-3.968-3.79 1.198-5.528-.96-10.306-.923-2.038 2.458-1.844 4.741.017 1.171.959 9.787 4.765 15.432 7.105 4.477 5.253 9.771 8.758 15.884 10.517-4.663-2.625-8.487-5.55-11.474-8.779.213.072.369.114.452.131 6.613 1.09 4.971 2.306 8.902 4.515 2.525.344 7.783 6.656 14.97 8.483 3.801.97 7.728 7.821 11.826 10.759 7.766 5.558 2.466 2.709 10.956 5.198a34.35 34.35 0 0 1 2.168.712H191c-4.595-1.581-7.467-5.536-10.748-6.678-6.461-2.238-9.748-7.075-13.927-11.818-4.411-5.012-10.676-4.468-12.965-7.252-1.574-1.916-10.77-6.83-13.291-7.66-.063-.059-.227-.094-.332-.166-.344-.233-.511-.233-.761-.372-.576-.33-.747.008-1.37-.005-.233 0-1.021-.499-1.046-.568-.069-.039-.374-.166-.417-.199-.392-.33-1.422-1.064-1.908-1.115-.345-.034-.956-.449-1.208-.53-.67-.221-.871-.726-1.83-.89-.751-.127-1.717-.377-2.373-.776.008-.08-7.978-2.323-8.412-2.437a3.843 3.843 0 0 1-.497-.199c-1.672-1.887-4.385-2.273-6.489-3.459-.97-.543-4.808 1.514-6.163 2.395-.711.466-1.091.458-1.557.851-.285.241-2.322 1.145-2.651.856-.287-.255-.099-.166-.387-.228-1.19-.263-.933.419-1.509.5-1.026.141-.589.293-1.111.474-.863.31-.329.526-1.235.509-.696-1.051-2.666-1.344-3.589-2.73-.203-.31-1.929-1.857-2.481-1.869-.696-.008-2.678-2.06-3.79-2.429a107.24 107.24 0 0 1-1.375-.979c-.01-.008-.986-.441-1.246-.679-.35-.322-1.609-.84-2.586-1.106-.429-.25-.859-.463-1.266-.56C81.014.519 80.86-.33 79.804.136c-2.128.929-1.654.535-3.935 2.031-.215-.03-1.405.208-1.522.322-.609.59-1.058 1.281-1.737 1.267-1.22-.022-.831.246-2.214.97-1.17.624-1.402 1.076-2.681 1.611-.567.241-1.909 1.508-2.476 1.45-.34.208-.908-.263-1.577.771-.122.186-.874.166-1.575 1.048-.028.039-.746.391-.943.593-1.208 1.242-.557.479-1.103.788-.768.441-1.58.924-2.398 1.247-1.622.627-1.553 1.098-2.334 1.56-1.035.615-1.101.975-2.426 1.436-.714.255-3.06 2.107-3.835 2.248-.746.127-3.489 2.714-4.567 3.183a3.268 3.268 0 0 0-.417.305c-1.585.191-2.123 1.281-3.481 1.933-.621.297-.758.682-1.523.895-1.088.293-2.663 1.907-3.115 2.06-.916.319-2.401 1.713-3.244 1.633-.013-.005-2.533 1.42-2.603 1.522-.07.097-.159.131-.155.225-.928.729-.327-.551-2.104 1.564-1.138 1.353-4.088 2.259-5.966 4.353-.417.466-.596-.657-2.661 2.437-1.835 2.742-3.496 2.392-5.81 4.247-1.732 1.386-2.893.788-5.505 2.883-1.789 1.433-3.761 2.662-5.735 3.718-.768.416-1.39 1.306-2.159 1.56h3.588V50z"/><path fill="#275490" d="M14.517 47.752c-.406.339-6.727 1.693-10.892 2.243l121.877.003c-.776-.754-2.013-2.476-2.508-3.205-4.484-6.654-6.37-5.171-9.043-9.27-3.285-5.028.795 10.573-2.418 2.586-2.506-6.232-9.348-9.187-9.212-11.666.16-2.896-2.355-8.338-2.341-8.64.251-5.451-6.54-7.036-7.818-8.588-1.176-1.433-8.921-8.406-8.971-8.483-.299.763-1.991 4.663-3.217 5.431-5.096 3.2-.879 5.866-3.845 6.057-1.372.089-3.531 7.566-3.531 7.643.155 10.75-2.84-4.773-2.75-4.086-.107.072-7.584 9.059-7.479 9.242 3.584 6.32-.185 14.227-3.669 11.225-9.857-8.474-5.37-12.822-17.916-2.509-29.405 24.176.507-10.093-26.266 12.018zm110.903.118c.459 1.09.679 1.763.731 2.129l61.869-.002-2.168-.712c-8.49-2.489-3.19.36-10.956-5.198-4.098-2.938-8.025-9.788-11.826-10.759-7.187-1.827-12.445-8.139-14.97-8.483-3.931-2.209-2.289-3.426-8.902-4.515a4.22 4.22 0 0 1-.452-.131c2.987 3.23 6.811 6.155 11.474 8.779-6.113-1.76-11.407-5.265-15.884-10.517-5.645-2.34-14.261-6.146-15.432-7.105-2.283-1.86-5.664-2.055-4.741-.017 2.158 4.778-3.008 6.517.96 10.306 3.731 3.568 3.455 2.789 1.845 3.327-.297.823.426 1.696-.641 3.049 2.343 1.292.496-4.421 4.708 4.375 2.197 4.591-6.121-6.55-6.226-.047-.022 1.356 6.421 5.561 8.093 6.592.973.603 1.774 7.16 2.518 8.929z"/></svg>
